X:1
T:Title
%%score { ( 1 3 ) | ( 2 4 ) }
L:1/8
Q:1/4=87
M:6/8
K:Ab
V:1 treble nm="Grand Piano"
V:3 treble 
V:2 bass 
V:4 bass 
V:1
 [CE]>[CA][DB] [Ec][EB][EA] | [EG]FF .F3 | [DB]>[Ec][Fd] [Fd][Fc][FB] | BAA .G3 | %4
w: Ira~D.~Sankey * * * * *||||
 E>AB [Ec][EB][EA] | [EG][DF][DF] .[Fd]3 | d>dd G<GG | [CA]6 | .c6 | e6 | .A6 | c6 | %12
w: ||||||||
 F>[EG][FA] [FB][FA][DF] | [CE]<[EA]B .c3 |[M:15/16] e/e-ee/-e/[Ge]/[Ge]-<[Ge]-[Ge]/[DEG] | %15
w: |||
[M:3/4] [CEA]6 |] %16
w: |
V:2
 [A,,A,]>[A,,E,][A,,E,] [A,,A,][B,,G,][C,A,] | [D,A,][D,A,D][D,A,D] .[D,A,D]3 | %2
 [B,,B,]>[B,,B,][B,,B,] [B,,B,][C,=A,][D,B,] | [E,CE][E,CE][E,CE] .[E,B,E]3 | %4
 [A,C]>[A,C][A,D] [A,,A,][B,,G,][C,A,] | [D,A,][D,A,][D,A,] .[B,,B,]3 | %6
 [E,G,E]>[E,G,E][E,G,E] [E,B,D]<[E,B,D][E,B,D] | [A,,A,]6 | [A,,A,]<[A,,A,][A,,A,] .[A,,A,]3 | %9
 [E,B,]<[E,B,][E,B,] .[E,B,]3 | [F,A,C]<[F,C][F,C] .[F,C]3 | [C,C]<[C,G,][C,G,] .[C,C]3 | %12
 [D,A,D]>[D,A,][D,A,] [D,D][D,D][D,A,] | [A,,A,]<[C,A,][E,G,E][K:treble] .[A,E]3 | %14
[M:15/16] z3/2 z [A,CA]/-[A,CA][K:bass] z/ z3 |[M:3/4] A,,6 |] %16
V:3
 x6 | x6 | x6 | x6 | x6 | x6 | x6 | x6 | E<EE EBc | G<GG .G3 | z/ F3/2F FGA | =E<EE .E3 | x6 | x6 | %14
[M:15/16] x15/2 |[M:3/4] x6 |] %16
V:4
 x6 | x6 | x6 | x6 | x6 | x6 | x6 | x6 | x6 | x6 | x6 | x6 | x6 | x3[K:treble] x3 | %14
[M:15/16] [A,CA]/[A,CA]-[A,CA] z/ z/[K:bass] [E,B,]/[E,B,]-<[E,B,]-[E,B,]/E, |[M:3/4] x6 |] %16

